modules/hawcons-stroke/icons/amused-face-closed-eyes.svg

<?xml version="1.0" encoding="UTF-8" standalone="no"?>
<svg width="32px" height="32px" viewBox="0 0 32 32" version="1.1" xmlns="http://www.w3.org/2000/svg" xmlns:xlink="http://www.w3.org/1999/xlink" xmlns:sketch="http://www.bohemiancoding.com/sketch/ns">
    <!-- Generator: Sketch 3.0.3 (7891) - http://www.bohemiancoding.com/sketch -->
    <title>icon 47 amused face closed eyes</title>
    <desc>Created with Sketch.</desc>
    <defs></defs>
    <g id="Page-1" stroke="none" stroke-width="1" fill="none" fill-rule="evenodd" sketch:type="MSPage">
        <g id="icon-47-amused-face-closed-eyes" sketch:type="MSArtboardGroup" fill="#929292">
            <path d="M16.5,29 C23.4035597,29 29,23.4035597 29,16.5 C29,9.59644029 23.4035597,4 16.5,4 C9.59644029,4 4,9.59644029 4,16.5 C4,23.4035597 9.59644029,29 16.5,29 L16.5,29 Z M16.5,28 C22.8512749,28 28,22.8512749 28,16.5 C28,10.1487251 22.8512749,5 16.5,5 C10.1487251,5 5,10.1487251 5,16.5 C5,22.8512749 10.1487251,28 16.5,28 L16.5,28 Z M19.6215213,10.9670954 L19.0623284,11.796133 L22.3784787,14.0329046 L22.9376716,13.203867 L19.6215213,10.9670954 L19.6215213,10.9670954 Z M10.0623284,13.203867 L10.6215213,14.0329046 L13.9376716,11.796133 L13.3784787,10.9670954 L10.0623284,13.203867 L10.0623284,13.203867 Z M16.4969482,21 C13.5,21 12,20 12,20 C12,20 13,23 16.5,23 C20,23 21,20 21,20 C21,20 19.4938965,21 16.4969482,21 L16.4969482,21 Z" id="amused-face-closed-eyes" sketch:type="MSShapeGroup"></path>
        </g>
    </g>
</svg>

<svg width="32" height="32" viewBox="0 0 32 32" xmlns="http://www.w3.org/2000/svg"><path d="M16.5 29C23.404 29 29 23.404 29 16.5S23.404 4 16.5 4 4 9.596 4 16.5 9.596 29 16.5 29zm0-1C22.851 28 28 22.851 28 16.5S22.851 5 16.5 5 5 10.149 5 16.5 10.149 28 16.5 28zm3.122-17.033l-.56.83 3.316 2.236.56-.83-3.316-2.236zm-9.56 2.237l.56.829 3.316-2.237-.56-.829-3.316 2.237zM16.497 21C13.5 21 12 20 12 20s1 3 4.5 3 4.5-3 4.5-3-1.506 1-4.503 1z" fill="#929292" fill-rule="evenodd"/></svg>
